source/assets/img/hackinout.svg

<?xml version="1.0" encoding="UTF-8"?>
<svg width="213px" height="31px" viewBox="0 0 213 31" version="1.1" xmlns="http://www.w3.org/2000/svg" xmlns:xlink="http://www.w3.org/1999/xlink">
    <!-- Generator: Sketch 42 (36781) - http://www.bohemiancoding.com/sketch -->
    <title>Group 4@2x</title>
    <desc>Created with Sketch.</desc>
    <defs></defs>
    <g id="Page-1" stroke="none" stroke-width="1" fill="none" fill-rule="evenodd">
        <g id="ComingSoon" transform="translate(-156.000000, -99.000000)" fill="#01FAC0">
            <g id="Group-4" transform="translate(156.000000, 99.000000)">
                <g id="Group-Copy">
                    <path d="M3.02229565,30.3839955 L0.901118136,30.3839955 C0.459741805,30.3839955 0.240124941,30.1641037 0.240124941,29.7232476 L0.240124941,0.697539469 C0.240124941,0.257756012 0.459741805,0.0367916404 0.901118136,0.0367916404 L3.02229565,0.0367916404 C3.46152938,0.0367916404 3.68221754,0.257756012 3.68221754,0.697539469 L3.68221754,13.1101594 C3.68221754,13.393337 3.8386276,13.5349258 4.15359033,13.5349258 L15.8436353,13.5349258 C16.1575267,13.5349258 16.3150081,13.393337 16.3150081,13.1101594 L16.3150081,0.697539469 C16.3150081,0.257756012 16.5335536,0.0367916404 16.9738587,0.0367916404 L19.0961075,0.0367916404 C19.5353412,0.0367916404 19.7560294,0.257756012 19.7560294,0.697539469 L19.7560294,29.7232476 C19.7560294,30.1641037 19.5353412,30.3839955 19.0961075,30.3839955 L16.9738587,30.3839955 C16.5335536,30.3839955 16.3150081,30.1641037 16.3150081,29.7232476 L16.3150081,16.9802538 C16.3150081,16.6970762 16.1575267,16.5554873 15.8436353,16.5554873 L4.15359033,16.5554873 C3.8386276,16.5554873 3.68221754,16.6970762 3.68221754,16.9802538 L3.68221754,29.7232476 C3.68221754,30.1641037 3.46152938,30.3839955 3.02229565,30.3839955 Z" id="Fill-1"></path>
                    <path d="M36.1123435,3.57629762 L31.2572038,19.9062082 L41.1560322,19.9062082 L36.3008926,3.57629762 L36.1123435,3.57629762 Z M27.5804962,30.3837809 L25.2236322,30.3837809 C24.814395,30.3837809 24.6729831,30.1638892 24.7993967,29.7230331 L33.6140678,0.69732494 C33.7394101,0.257541483 34.0383033,0.0365771119 34.509676,0.0365771119 L37.9035601,0.0365771119 C38.3749328,0.0365771119 38.673826,0.257541483 38.7991683,0.69732494 L47.6138393,29.7230331 C47.7391817,30.1638892 47.5977698,30.3837809 47.1896038,30.3837809 L44.7856027,30.3837809 C44.4385009,30.3837809 44.2199553,30.1638892 44.1256808,29.7230331 L41.9102287,22.8323772 L30.5030074,22.8323772 L28.2875553,29.7230331 C28.1611417,30.1638892 27.9254553,30.3837809 27.5804962,30.3837809 L27.5804962,30.3837809 Z" id="Fill-3"></path>
                    <path d="M64.8188387,30.3839955 L59.1623654,30.3839955 C56.9940506,30.3839955 55.2885381,29.7704439 54.0479707,28.5433408 C52.8063319,27.3162377 52.1860482,25.6021549 52.1860482,23.398947 L52.1860482,7.02184011 C52.1860482,4.8197049 52.8063319,3.10454941 54.0479707,1.8774463 C55.2885381,0.650343195 56.9940506,0.0367916404 59.1623654,0.0367916404 L64.8188387,0.0367916404 C66.9860822,0.0367916404 68.6915946,0.650343195 69.9321621,1.8774463 C71.1748722,3.10454941 71.7951559,4.8197049 71.7951559,7.02184011 L71.7951559,9.33445751 C71.7951559,9.77531361 71.575539,9.99520534 71.135234,9.99520534 L69.0140565,9.99520534 C68.5737514,9.99520534 68.3541346,9.77531361 68.3541346,9.33445751 L68.3541346,7.16342893 C68.3541346,4.42604507 67.0342908,3.05735314 64.3946032,3.05735314 L59.5394636,3.05735314 C56.9308438,3.05735314 55.6270695,4.42604507 55.6270695,7.16342893 L55.6270695,23.2573582 C55.6270695,25.994742 56.9308438,27.363434 59.5394636,27.363434 L64.3946032,27.363434 C67.0342908,27.363434 68.3541346,25.994742 68.3541346,23.2573582 L68.3541346,21.0863296 C68.3541346,20.6454735 68.5737514,20.4255818 69.0140565,20.4255818 L71.135234,20.4255818 C71.575539,20.4255818 71.7951559,20.6454735 71.7951559,21.0863296 L71.7951559,23.398947 C71.7951559,25.6021549 71.1748722,27.3162377 69.9321621,28.5433408 C68.6915946,29.7704439 66.9860822,30.3839955 64.8188387,30.3839955" id="Fill-5"></path>
                    <path d="M80.9386094,30.3839955 L78.8174319,30.3839955 C78.3760556,30.3839955 78.1564387,30.1641037 78.1564387,29.7232476 L78.1564387,0.697539469 C78.1564387,0.257756012 78.3760556,0.0367916404 78.8174319,0.0367916404 L80.9386094,0.0367916404 C81.3778431,0.0367916404 81.5985313,0.257756012 81.5985313,0.697539469 L81.5985313,16.9802538 L81.7399431,16.9802538 C81.9584887,16.319506 82.3045192,15.6748478 82.7769633,15.0452066 L93.3346422,0.697539469 C93.6185372,0.257756012 94.0267032,0.0367916404 94.5612828,0.0367916404 L97.1066958,0.0367916404 C97.6402041,0.0367916404 97.7194804,0.272773008 97.3423822,0.744735742 L88.0092011,13.393337 L98.662226,29.6288551 C99.0071851,30.1329971 98.8657733,30.3839955 98.2369192,30.3839955 L96.3053621,30.3839955 C95.6454402,30.3839955 95.1890656,30.1641037 94.9373097,29.7232476 L85.8880236,15.8947395 L81.5985313,21.0391333 L81.5985313,29.7232476 C81.5985313,30.1641037 81.3778431,30.3839955 80.9386094,30.3839955" id="Fill-7"></path>
                    <path d="M109.079136,1.02769885 L109.079136,29.3926592 C109.079136,30.053407 108.749175,30.3837809 108.089253,30.3837809 L104.082584,30.3837809 C103.422663,30.3837809 103.092702,30.053407 103.092702,29.3926592 L103.092702,1.02769885 C103.092702,0.366951026 103.422663,0.0365771119 104.082584,0.0365771119 L108.089253,0.0365771119 C108.749175,0.0365771119 109.079136,0.366951026 109.079136,1.02769885" id="Fill-9"></path>
                    <path d="M120.344624,30.3839955 L116.433301,30.3839955 C115.772308,30.3839955 115.443418,30.0536216 115.443418,29.3928737 L115.443418,1.02791338 C115.443418,0.367165555 115.772308,0.0367916404 116.433301,0.0367916404 L119.967526,0.0367916404 C120.628519,0.0367916404 121.067753,0.257756012 121.288441,0.697539469 L130.810171,18.5849271 L130.997649,18.5849271 L130.997649,1.02791338 C130.997649,0.367165555 131.328681,0.0367916404 131.987532,0.0367916404 L135.900997,0.0367916404 C136.560919,0.0367916404 136.889809,0.367165555 136.889809,1.02791338 L136.889809,29.3928737 C136.889809,30.0536216 136.560919,30.3839955 135.900997,30.3839955 L132.459976,30.3839955 C131.767915,30.3839955 131.264403,30.0697112 130.950512,29.44007 L121.524127,11.8830563 L121.335578,11.8830563 L121.335578,29.3928737 C121.335578,30.0536216 121.004546,30.3839955 120.344624,30.3839955" id="Fill-11"></path>
                    <path d="M151.265821,25.1925127 L154.612568,25.1925127 C155.617449,25.1925127 156.333079,24.9801294 156.757314,24.555363 C157.18155,24.1305965 157.394739,23.4151439 157.394739,22.4079325 L157.394739,8.01306912 C157.394739,7.00585774 157.18155,6.29040514 156.757314,5.86563868 C156.333079,5.44087221 155.617449,5.22848898 154.612568,5.22848898 L151.265821,5.22848898 C150.26094,5.22848898 149.55281,5.44087221 149.145715,5.86563868 C148.736478,6.29040514 148.531859,7.00585774 148.531859,8.01306912 L148.531859,22.4079325 C148.531859,23.4151439 148.736478,24.1305965 149.145715,24.555363 C149.55281,24.9801294 150.26094,25.1925127 151.265821,25.1925127 M155.603522,30.3841027 L150.323076,30.3841027 C147.84087,30.3841027 145.924311,29.7233549 144.572328,28.4018592 C143.221416,27.0803636 142.545425,25.176423 142.545425,22.6911102 L142.545425,7.72989148 C142.545425,5.24457862 143.221416,3.34063805 144.572328,2.01914239 C145.924311,0.697646733 147.84087,0.0368989047 150.323076,0.0368989047 L155.603522,0.0368989047 C158.084657,0.0368989047 160.002287,0.697646733 161.353199,2.01914239 C162.705182,3.34063805 163.381173,5.24457862 163.381173,7.72989148 L163.381173,22.6911102 C163.381173,25.176423 162.705182,27.0803636 161.353199,28.4018592 C160.002287,29.7233549 158.084657,30.3841027 155.603522,30.3841027" id="Fill-13"></path>
                    <path d="M184.545275,0.0367916404 L188.504807,0.0367916404 C189.195796,0.0367916404 189.541827,0.351075916 189.541827,0.980717109 L189.541827,22.6910029 C189.541827,25.1452091 188.858336,27.0416412 187.491355,28.3781538 C186.124374,29.7157391 184.215314,30.3839955 181.764176,30.3839955 L176.579075,30.3839955 C174.095798,30.3839955 172.179239,29.7232476 170.828327,28.401752 C169.477416,27.0802563 168.801424,25.1773884 168.801424,22.6910029 L168.801424,1.02791338 C168.801424,0.367165555 169.131385,0.0367916404 169.792379,0.0367916404 L173.797976,0.0367916404 C174.457898,0.0367916404 174.787859,0.367165555 174.787859,1.02791338 L174.787859,22.4078253 C174.787859,23.4150366 174.999977,24.1304892 175.424212,24.5552557 C175.848448,24.9800222 176.546936,25.1924054 177.521821,25.1924054 L180.774293,25.1924054 C181.780246,25.1924054 182.494804,24.9800222 182.919039,24.5552557 C183.343275,24.1304892 183.555393,23.4150366 183.555393,22.4078253 L183.555393,1.02791338 C183.555393,0.367165555 183.885353,0.0367916404 184.545275,0.0367916404" id="Fill-15"></path>
                    <path d="M204.814198,30.3839955 L200.854666,30.3839955 C200.162606,30.3839955 199.817646,30.0536216 199.817646,29.3928737 L199.817646,5.74754073 C199.817646,5.40107717 199.644095,5.22838172 199.299136,5.22838172 L193.925487,5.22838172 C193.265565,5.22838172 192.935604,4.89800781 192.935604,4.23725998 L192.935604,1.02791338 C192.935604,0.367165555 193.265565,0.0367916404 193.925487,0.0367916404 L211.743378,0.0367916404 C212.4033,0.0367916404 212.733261,0.367165555 212.733261,1.02791338 L212.733261,4.23725998 C212.733261,4.89800781 212.4033,5.22838172 211.743378,5.22838172 L206.369728,5.22838172 C205.99263,5.22838172 205.804081,5.40107717 205.804081,5.74754073 L205.804081,29.3928737 C205.804081,30.0536216 205.47412,30.3839955 204.814198,30.3839955" id="Fill-17"></path>
                </g>
            </g>
        </g>
    </g>
</svg>

<svg width="213" height="31" viewBox="0 0 213 31" xmlns="http://www.w3.org/2000/svg"><title>Group 4@2x</title><desc>Created with Sketch.</desc><g fill="#01FAC0"><path d="M3.022 30.384h-2.121c-.441 0-.661-.22-.661-.661v-29.026c0-.44.22-.661.661-.661h2.121c.439 0 .66.221.66.661v12.413c0 .283.156.425.471.425h11.69c.314 0 .471-.142.471-.425v-12.413c0-.44.219-.661.659-.661h2.122c.439 0 .66.221.66.661v29.026c0 .441-.221.661-.66.661h-2.122c-.44 0-.659-.22-.659-.661v-12.743c0-.283-.157-.425-.471-.425h-11.69c-.315 0-.471.142-.471.425v12.743c0 .441-.221.661-.66.661z"/><path d="M36.112 3.576l-4.855 16.33h9.899l-4.855-16.33h-.189zm-8.532 26.807h-2.357c-.409 0-.551-.22-.424-.661l8.815-29.026c.125-.44.424-.661.896-.661h3.394c.471 0 .77.221.896.661l8.815 29.026c.125.441-.016.661-.424.661h-2.404c-.347 0-.566-.22-.66-.661l-2.215-6.891h-11.407l-2.215 6.891c-.126.441-.362.661-.707.661z"/><path d="M64.819 30.384h-5.656c-2.168 0-3.874-.614-5.114-1.841-1.242-1.227-1.862-2.941-1.862-5.144v-16.377c0-2.202.62-3.917 1.862-5.144 1.241-1.227 2.946-1.841 5.114-1.841h5.656c2.167 0 3.873.614 5.113 1.841 1.243 1.227 1.863 2.942 1.863 5.144v2.313c0 .441-.22.661-.66.661h-2.121c-.44 0-.66-.22-.66-.661v-2.171c0-2.737-1.32-4.106-3.96-4.106h-4.855c-2.609 0-3.912 1.369-3.912 4.106v16.094c0 2.737 1.304 4.106 3.912 4.106h4.855c2.64 0 3.96-1.369 3.96-4.106v-2.171c0-.441.22-.661.66-.661h2.121c.44 0 .66.22.66.661v2.313c0 2.203-.62 3.917-1.863 5.144-1.241 1.227-2.946 1.841-5.113 1.841"/><path d="M80.939 30.384h-2.121c-.441 0-.661-.22-.661-.661v-29.026c0-.44.22-.661.661-.661h2.121c.439 0 .66.221.66.661v16.283h.141c.219-.661.565-1.305 1.037-1.935l10.558-14.348c.284-.44.692-.661 1.227-.661h2.545c.534 0 .613.236.236.708l-9.333 12.649 10.653 16.236c.345.504.204.755-.425.755h-1.932c-.66 0-1.116-.22-1.368-.661l-9.049-13.829-4.289 5.144v8.684c0 .441-.221.661-.66.661"/><path d="M109.079 1.028v28.365c0 .661-.33.991-.99.991h-4.007c-.66 0-.99-.33-.99-.991v-28.365c0-.661.33-.991.99-.991h4.007c.66 0 .99.33.99.991"/><path d="M120.345 30.384h-3.911c-.661 0-.99-.33-.99-.991v-28.365c0-.661.329-.991.99-.991h3.534c.661 0 1.1.221 1.321.661l9.522 17.887h.187v-17.557c0-.661.331-.991.99-.991h3.913c.66 0 .989.33.989.991v28.365c0 .661-.329.991-.989.991h-3.441c-.692 0-1.196-.314-1.509-.944l-9.426-17.557h-.189v17.51c0 .661-.331.991-.991.991"/><path d="M151.266 25.193h3.347c1.005 0 1.721-.212 2.145-.637.424-.425.637-1.14.637-2.147v-14.395c0-1.007-.213-1.723-.637-2.147-.424-.425-1.14-.637-2.145-.637h-3.347c-1.005 0-1.713.212-2.12.637-.409.425-.614 1.14-.614 2.147v14.395c0 1.007.205 1.723.614 2.147.407.425 1.115.637 2.12.637m4.338 5.192h-5.28c-2.482 0-4.399-.661-5.751-1.982-1.351-1.321-2.027-3.225-2.027-5.711v-14.961c0-2.485.676-4.389 2.027-5.711 1.352-1.321 3.269-1.982 5.751-1.982h5.28c2.481 0 4.399.661 5.75 1.982 1.352 1.321 2.028 3.225 2.028 5.711v14.961c0 2.485-.676 4.389-2.028 5.711-1.351 1.321-3.269 1.982-5.75 1.982"/><path d="M184.545.037h3.96c.691 0 1.037.314 1.037.944v21.71c0 2.454-.683 4.351-2.05 5.687-1.367 1.338-3.276 2.006-5.727 2.006h-5.185c-2.483 0-4.4-.661-5.751-1.982s-2.027-3.224-2.027-5.711v-21.663c0-.661.33-.991.991-.991h4.006c.66 0 .99.33.99.991v21.38c0 1.007.212 1.723.636 2.147.424.425 1.123.637 2.098.637h3.252c1.006 0 1.721-.212 2.145-.637.424-.425.636-1.14.636-2.147v-21.38c0-.661.33-.991.99-.991"/><path d="M204.814 30.384h-3.96c-.692 0-1.037-.33-1.037-.991v-23.645c0-.346-.174-.519-.519-.519h-5.374c-.66 0-.99-.33-.99-.991v-3.209c0-.661.33-.991.99-.991h17.818c.66 0 .99.33.99.991v3.209c0 .661-.33.991-.99.991h-5.374c-.377 0-.566.173-.566.519v23.645c0 .661-.33.991-.99.991"/></g></svg>
